X: 38351
T: Stagshaw Bank Fair
R: reel
M: 4/4
K: Gmajor
BGGB cAAc|BGGc Bdgd|BGGB cAAc|1 Bgd^c ded=c:|2 Bgd^c d3e||
|:dBdg eceg|fdef ga (3gfe|dBdg eceg|fdef ~g2fe|
dB~B2 ec~c2|dBGB AFDd|edef ga (3gfe|1 dBcA G3e:|2 dBcA G2dc||

